X: 13746
T: Forgandenny Golfer, The
R: reel
M: 4/4
K: Amajor
|:(AB)|cBAF (EF)(EC)|EFAB c2 (BA)|ceef ecaf|ecBA B2 (AB)|
cBAF EFEC|EFAB c2 (BA)|ceef e(cdB)|c2 A2 A2:|
(AB)|cff^e fgf=e|cff^e f2 (=ec)|Bee^d efec|Bee^d e2 (=de)|
cff^e fgf=e|cff^e f2 (=ec)|cdcA BdcB|A2 F2 F2 (AB)|
cff^e fgf=e|cff^e f2 (=ec)|Bee^d egba|gfe^d e2 (ef)|
aecB GAce|fdAF DFAF|EFGA B(cdB)|c2 A2 A4||

